icons/modern/cooked-rice.svg

<svg width="32" height="32" viewBox="0 0 32 32" fill="none" xmlns="http://www.w3.org/2000/svg">
<path d="M18.65 30.0076H13.26C7.05001 30.0076 2.01001 24.9676 2.01001 18.7576V13.4976H29.9V18.7576C29.9 24.9676 24.86 30.0076 18.65 30.0076Z" fill="url(#paint0_linear_18_31758)"/>
<path d="M18.65 30.0076H13.26C7.05001 30.0076 2.01001 24.9676 2.01001 18.7576V13.4976H29.9V18.7576C29.9 24.9676 24.86 30.0076 18.65 30.0076Z" fill="url(#paint1_linear_18_31758)"/>
<path d="M21.92 5.125H9.98C5.57 5.125 2 9.08758 2 13.4976C2 17.9076 5.57 21.4776 9.98 21.4776H21.91C26.32 21.4776 29.89 17.9076 29.89 13.4976C29.9 9.09758 26.9219 5.125 21.92 5.125Z" fill="url(#paint2_linear_18_31758)"/>
<g filter="url(#filter0_f_18_31758)">
<path d="M26.539 11.3603C26.269 10.3303 25.4965 9.60402 24.9765 8.70402C24.9765 8.70402 8.3962 3.51867 5.5 8.53125C4.98 9.43125 3.9311 10.5146 3.71873 11.8126C3.01564 16.1094 5.67657 17.068 7.17965 18.2501C8.78899 19.5157 11.3822 19.2344 15.3114 19.2344C18.3592 19.2344 21.4971 19.3296 23.5859 18.2501C25.7766 17.1178 27.2454 14.0551 26.539 11.3603Z" fill="#642A2B"/>
</g>
<path d="M27.1875 11.0312C26.9175 10.0012 26.145 9.27495 25.625 8.37495C25.095 7.46495 24.6775 6.19307 23.9375 5.45307C23.1975 4.71307 22.3888 4.35759 21.4688 3.82759C20.5688 3.30759 20.0456 2.62932 19.0156 2.35932C17.864 2.05745 16.955 2.35934 15.875 2.35934C14.795 2.35934 14.3125 1.9374 12.7656 2.45307C11.7555 2.78981 11.4938 3.30759 10.5938 3.82759C9.69379 4.36759 8.75002 4.57812 8.03127 5.48438C7.36262 6.32745 6.85817 7.43937 6.32817 8.35938C5.80817 9.25937 4.99363 9.88958 4.78125 11.1875C4.07817 15.4844 6.32508 17.4272 7.82816 18.6093C9.4375 19.875 12.0307 19.5937 15.9599 19.5937C19.0077 19.5937 22.1457 19.6888 24.2344 18.6093C26.4251 17.4771 27.8939 13.7261 27.1875 11.0312Z" fill="#FAF8FC"/>
<path d="M27.1875 11.0312C26.9175 10.0012 26.145 9.27495 25.625 8.37495C25.095 7.46495 24.6775 6.19307 23.9375 5.45307C23.1975 4.71307 22.3888 4.35759 21.4688 3.82759C20.5688 3.30759 20.0456 2.62932 19.0156 2.35932C17.864 2.05745 16.955 2.35934 15.875 2.35934C14.795 2.35934 14.3125 1.9374 12.7656 2.45307C11.7555 2.78981 11.4938 3.30759 10.5938 3.82759C9.69379 4.36759 8.75002 4.57812 8.03127 5.48438C7.36262 6.32745 6.85817 7.43937 6.32817 8.35938C5.80817 9.25937 4.99363 9.88958 4.78125 11.1875C4.07817 15.4844 6.32508 17.4272 7.82816 18.6093C9.4375 19.875 12.0307 19.5937 15.9599 19.5937C19.0077 19.5937 22.1457 19.6888 24.2344 18.6093C26.4251 17.4771 27.8939 13.7261 27.1875 11.0312Z" fill="url(#paint3_radial_18_31758)"/>
<path d="M27.1875 11.0312C26.9175 10.0012 26.145 9.27495 25.625 8.37495C25.095 7.46495 24.6775 6.19307 23.9375 5.45307C23.1975 4.71307 22.3888 4.35759 21.4688 3.82759C20.5688 3.30759 20.0456 2.62932 19.0156 2.35932C17.864 2.05745 16.955 2.35934 15.875 2.35934C14.795 2.35934 14.3125 1.9374 12.7656 2.45307C11.7555 2.78981 11.4938 3.30759 10.5938 3.82759C9.69379 4.36759 8.75002 4.57812 8.03127 5.48438C7.36262 6.32745 6.85817 7.43937 6.32817 8.35938C5.80817 9.25937 4.99363 9.88958 4.78125 11.1875C4.07817 15.4844 6.32508 17.4272 7.82816 18.6093C9.4375 19.875 12.0307 19.5937 15.9599 19.5937C19.0077 19.5937 22.1457 19.6888 24.2344 18.6093C26.4251 17.4771 27.8939 13.7261 27.1875 11.0312Z" fill="url(#paint4_radial_18_31758)"/>
<path d="M27.1875 11.0312C26.9175 10.0012 26.145 9.27495 25.625 8.37495C25.095 7.46495 24.6775 6.19307 23.9375 5.45307C23.1975 4.71307 22.3888 4.35759 21.4688 3.82759C20.5688 3.30759 20.0456 2.62932 19.0156 2.35932C17.864 2.05745 16.955 2.35934 15.875 2.35934C14.795 2.35934 14.3125 1.9374 12.7656 2.45307C11.7555 2.78981 11.4938 3.30759 10.5938 3.82759C9.69379 4.36759 8.75002 4.57812 8.03127 5.48438C7.36262 6.32745 6.85817 7.43937 6.32817 8.35938C5.80817 9.25937 4.99363 9.88958 4.78125 11.1875C4.07817 15.4844 6.32508 17.4272 7.82816 18.6093C9.4375 19.875 12.0307 19.5937 15.9599 19.5937C19.0077 19.5937 22.1457 19.6888 24.2344 18.6093C26.4251 17.4771 27.8939 13.7261 27.1875 11.0312Z" fill="url(#paint5_radial_18_31758)"/>
<path d="M27.1875 11.0312C26.9175 10.0012 26.145 9.27495 25.625 8.37495C25.095 7.46495 24.6775 6.19307 23.9375 5.45307C23.1975 4.71307 22.3888 4.35759 21.4688 3.82759C20.5688 3.30759 20.0456 2.62932 19.0156 2.35932C17.864 2.05745 16.955 2.35934 15.875 2.35934C14.795 2.35934 14.3125 1.9374 12.7656 2.45307C11.7555 2.78981 11.4938 3.30759 10.5938 3.82759C9.69379 4.36759 8.75002 4.57812 8.03127 5.48438C7.36262 6.32745 6.85817 7.43937 6.32817 8.35938C5.80817 9.25937 4.99363 9.88958 4.78125 11.1875C4.07817 15.4844 6.32508 17.4272 7.82816 18.6093C9.4375 19.875 12.0307 19.5937 15.9599 19.5937C19.0077 19.5937 22.1457 19.6888 24.2344 18.6093C26.4251 17.4771 27.8939 13.7261 27.1875 11.0312Z" fill="url(#paint6_radial_18_31758)"/>
<path d="M12.1499 10.9076L12.9199 12.6376C13.0899 13.0176 13.5399 13.1876 13.9199 13.0176C14.2999 12.8476 14.4699 12.3976 14.2999 12.0176L13.5299 10.2876C13.3599 9.90762 12.9099 9.73762 12.5299 9.90762C12.1499 10.0776 11.9799 10.5176 12.1499 10.9076Z" fill="#C5BFCF"/>
<path d="M9.57991 15.1377L9.22991 16.9977C9.14991 17.4077 9.41991 17.8077 9.83991 17.8877C10.2499 17.9677 10.6499 17.6977 10.7299 17.2777L11.0799 15.4177C11.1599 15.0077 10.8899 14.6077 10.4699 14.5277C10.0499 14.4477 9.64991 14.7177 9.57991 15.1377Z" fill="#BAB1C8"/>
<path d="M7.81991 11.4576L6.13991 12.3376C5.76991 12.5276 5.61991 12.9876 5.81991 13.3576C6.00991 13.7276 6.46991 13.8776 6.83991 13.6776L8.51991 12.7976C8.88991 12.6076 9.03991 12.1476 8.83991 11.7776C8.64991 11.4076 8.18991 11.2676 7.81991 11.4576Z" fill="url(#paint7_linear_18_31758)"/>
<path d="M19.75 6.06769L19.4 7.92769C19.32 8.33769 19.59 8.73769 20.01 8.81769C20.42 8.89769 20.82 8.62769 20.9 8.20769L21.25 6.34769C21.33 5.93769 21.06 5.53769 20.64 5.45769C20.23 5.38769 19.83 5.65769 19.75 6.06769Z" fill="#E0DDE2"/>
<path d="M9.03993 6.36759L7.90992 7.88759C7.65992 8.22759 7.72992 8.69759 8.06992 8.94759C8.40992 9.19759 8.87992 9.12759 9.12992 8.78759L10.2599 7.26759C10.5099 6.92759 10.4399 6.45759 10.0999 6.20759C9.76992 5.95759 9.28993 6.02759 9.03993 6.36759Z" fill="#A6A2A9"/>
<path d="M16.0599 15.0476L14.9299 16.5676C14.6799 16.9076 14.7499 17.3776 15.0899 17.6276C15.4299 17.8776 15.8999 17.8076 16.1499 17.4676L17.2799 15.9476C17.5299 15.6076 17.4599 15.1376 17.1199 14.8876C16.7799 14.6476 16.3099 14.7176 16.0599 15.0476Z" fill="#C7BFD5"/>
<path d="M23.5199 11.0076L24.7499 12.4476C25.0199 12.7676 25.4999 12.8076 25.8199 12.5376C26.1399 12.2676 26.1799 11.7876 25.9099 11.4676L24.6799 10.0276C24.4099 9.7076 23.9299 9.6676 23.6099 9.9376C23.2899 10.2176 23.2499 10.6876 23.5199 11.0076Z" fill="#EDEBEF"/>
<path d="M15.9999 6.11759L15.0499 4.47759C14.8399 4.11759 14.3799 3.98759 14.0099 4.19759C13.6499 4.40759 13.5199 4.86759 13.7299 5.23759L14.6799 6.87759C14.8899 7.23759 15.3499 7.36759 15.7199 7.15759C16.0899 6.94759 16.2099 6.48759 15.9999 6.11759Z" fill="#CCCACF"/>
<path d="M24.0399 16.5476L23.0899 14.9076C22.8799 14.5476 22.4199 14.4176 22.0499 14.6276C21.6899 14.8376 21.5599 15.2976 21.7699 15.6676L22.7199 17.3076C22.9299 17.6676 23.3899 17.7976 23.7599 17.5876C24.1199 17.3776 24.2499 16.9176 24.0399 16.5476Z" fill="#DAD4E2"/>
<path d="M20.2199 11.2976L18.4799 10.5476C18.0999 10.3776 17.6499 10.5576 17.4799 10.9476C17.3099 11.3276 17.4899 11.7776 17.8799 11.9476L19.6199 12.6976C19.9999 12.8676 20.4499 12.6876 20.6199 12.2976C20.7799 11.9076 20.5999 11.4576 20.2199 11.2976Z" fill="#D5D0DD"/>
<defs>
<filter id="filter0_f_18_31758" x="1.60272" y="4.34741" width="27.1151" height="16.9137" filterUnits="userSpaceOnUse" color-interpolation-filters="sRGB">
<feFlood flood-opacity="0" result="BackgroundImageFix"/>
<feBlend mode="normal" in="SourceGraphic" in2="BackgroundImageFix" result="shape"/>
<feGaussianBlur stdDeviation="1" result="effect1_foregroundBlur_18_31758"/>
</filter>
<linearGradient id="paint0_linear_18_31758" x1="29.9" y1="22.3125" x2="2.625" y2="22.3125" gradientUnits="userSpaceOnUse">
<stop stop-color="#FF3F48"/>
<stop offset="0.136114" stop-color="#FC2D53"/>
<stop offset="0.312557" stop-color="#D42C62"/>
<stop offset="0.509624" stop-color="#D82D67"/>
<stop offset="0.754812" stop-color="#C52E62"/>
<stop offset="1" stop-color="#984651"/>
</linearGradient>
<linearGradient id="paint1_linear_18_31758" x1="13.375" y1="31.375" x2="13.375" y2="26.125" gradientUnits="userSpaceOnUse">
<stop stop-color="#A2336C"/>
<stop offset="1" stop-color="#A82B66" stop-opacity="0"/>
</linearGradient>
<linearGradient id="paint2_linear_18_31758" x1="27.625" y1="5.9375" x2="4.875" y2="17.3125" gradientUnits="userSpaceOnUse">
<stop stop-color="#EB3334"/>
<stop offset="1" stop-color="#B22B4D"/>
</linearGradient>
<radialGradient id="paint3_radial_18_31758" cx="0" cy="0" r="1" gradientUnits="userSpaceOnUse" gradientTransform="translate(8.375 24.125) rotate(-46.5802) scale(25.6424 26.1468)">
<stop offset="0.47468" stop-color="#E0D4EF"/>
<stop offset="0.908677" stop-color="#FCFBFD" stop-opacity="0"/>
</radialGradient>
<radialGradient id="paint4_radial_18_31758" cx="0" cy="0" r="1" gradientUnits="userSpaceOnUse" gradientTransform="translate(20.875 13.4375) rotate(109.194) scale(19.3904 23.13)">
<stop offset="0.394803" stop-color="#D1CDD5" stop-opacity="0"/>
<stop offset="0.659678" stop-color="#9B96A1"/>
</radialGradient>
<radialGradient id="paint5_radial_18_31758" cx="0" cy="0" r="1" gradientUnits="userSpaceOnUse" gradientTransform="translate(14.75 4.4375) rotate(91.3019) scale(2.75071 3.21089)">
<stop stop-color="#E0DFE0"/>
<stop offset="1" stop-color="#F9F6FC" stop-opacity="0"/>
</radialGradient>
<radialGradient id="paint6_radial_18_31758" cx="0" cy="0" r="1" gradientUnits="userSpaceOnUse" gradientTransform="translate(19.5625 4.8125) rotate(150.751) scale(1.79082 3.29406)">
<stop stop-color="#F6F5F6"/>
<stop offset="1" stop-color="#F1EFF2" stop-opacity="0"/>
</radialGradient>
<linearGradient id="paint7_linear_18_31758" x1="6.125" y1="13.25" x2="8.92893" y2="11.373" gradientUnits="userSpaceOnUse">
<stop stop-color="#807985"/>
<stop offset="1" stop-color="#A6A0AE"/>
</linearGradient>
</defs>
</svg>

<svg width="32" height="32" fill="none" xmlns="http://www.w3.org/2000/svg"><path d="M18.65 30.008h-5.39c-6.21 0-11.25-5.04-11.25-11.25v-5.26H29.9v5.26c0 6.21-5.04 11.25-11.25 11.25Z" fill="url(#a)"/><path d="M18.65 30.008h-5.39c-6.21 0-11.25-5.04-11.25-11.25v-5.26H29.9v5.26c0 6.21-5.04 11.25-11.25 11.25Z" fill="url(#b)"/><path d="M21.92 5.125H9.98C5.57 5.125 2 9.088 2 13.498c0 4.41 3.57 7.98 7.98 7.98h11.93c4.41 0 7.98-3.57 7.98-7.98.01-4.4-2.968-8.373-7.97-8.373Z" fill="url(#c)"/><g filter="url(#d)"><path d="M26.539 11.36c-.27-1.03-1.043-1.756-1.563-2.656 0 0-16.58-5.185-19.476-.173-.52.9-1.569 1.984-1.781 3.282-.703 4.296 1.958 5.255 3.46 6.437 1.61 1.266 4.203.984 8.132.984 3.048 0 6.186.096 8.275-.984 2.19-1.132 3.66-4.195 2.953-6.89Z" fill="#642A2B"/></g><path d="M27.188 11.031c-.27-1.03-1.043-1.756-1.563-2.656-.53-.91-.948-2.182-1.688-2.922-.74-.74-1.548-1.095-2.468-1.625-.9-.52-1.423-1.199-2.453-1.469-1.152-.302-2.061 0-3.141 0s-1.563-.422-3.11.094c-1.01.337-1.271.855-2.171 1.375-.9.54-1.844.75-2.563 1.656-.668.843-1.173 1.955-1.703 2.875-.52.9-1.334 1.53-1.547 2.829-.703 4.296 1.544 6.24 3.047 7.421 1.61 1.266 4.203.985 8.132.985 3.048 0 6.186.095 8.274-.985 2.191-1.132 3.66-4.883 2.953-7.578Z" fill="#FAF8FC"/><path d="M27.188 11.031c-.27-1.03-1.043-1.756-1.563-2.656-.53-.91-.948-2.182-1.688-2.922-.74-.74-1.548-1.095-2.468-1.625-.9-.52-1.423-1.199-2.453-1.469-1.152-.302-2.061 0-3.141 0s-1.563-.422-3.11.094c-1.01.337-1.271.855-2.171 1.375-.9.54-1.844.75-2.563 1.656-.668.843-1.173 1.955-1.703 2.875-.52.9-1.334 1.53-1.547 2.829-.703 4.296 1.544 6.24 3.047 7.421 1.61 1.266 4.203.985 8.132.985 3.048 0 6.186.095 8.274-.985 2.191-1.132 3.66-4.883 2.953-7.578Z" fill="url(#e)"/><path d="M27.188 11.031c-.27-1.03-1.043-1.756-1.563-2.656-.53-.91-.948-2.182-1.688-2.922-.74-.74-1.548-1.095-2.468-1.625-.9-.52-1.423-1.199-2.453-1.469-1.152-.302-2.061 0-3.141 0s-1.563-.422-3.11.094c-1.01.337-1.271.855-2.171 1.375-.9.54-1.844.75-2.563 1.656-.668.843-1.173 1.955-1.703 2.875-.52.9-1.334 1.53-1.547 2.829-.703 4.296 1.544 6.24 3.047 7.421 1.61 1.266 4.203.985 8.132.985 3.048 0 6.186.095 8.274-.985 2.191-1.132 3.66-4.883 2.953-7.578Z" fill="url(#f)"/><path d="M27.188 11.031c-.27-1.03-1.043-1.756-1.563-2.656-.53-.91-.948-2.182-1.688-2.922-.74-.74-1.548-1.095-2.468-1.625-.9-.52-1.423-1.199-2.453-1.469-1.152-.302-2.061 0-3.141 0s-1.563-.422-3.11.094c-1.01.337-1.271.855-2.171 1.375-.9.54-1.844.75-2.563 1.656-.668.843-1.173 1.955-1.703 2.875-.52.9-1.334 1.53-1.547 2.829-.703 4.296 1.544 6.24 3.047 7.421 1.61 1.266 4.203.985 8.132.985 3.048 0 6.186.095 8.274-.985 2.191-1.132 3.66-4.883 2.953-7.578Z" fill="url(#g)"/><path d="M27.188 11.031c-.27-1.03-1.043-1.756-1.563-2.656-.53-.91-.948-2.182-1.688-2.922-.74-.74-1.548-1.095-2.468-1.625-.9-.52-1.423-1.199-2.453-1.469-1.152-.302-2.061 0-3.141 0s-1.563-.422-3.11.094c-1.01.337-1.271.855-2.171 1.375-.9.54-1.844.75-2.563 1.656-.668.843-1.173 1.955-1.703 2.875-.52.9-1.334 1.53-1.547 2.829-.703 4.296 1.544 6.24 3.047 7.421 1.61 1.266 4.203.985 8.132.985 3.048 0 6.186.095 8.274-.985 2.191-1.132 3.66-4.883 2.953-7.578Z" fill="url(#h)"/><path d="m12.15 10.908.77 1.73c.17.38.62.55 1 .38.38-.17.55-.62.38-1l-.77-1.73a.758.758 0 0 0-1-.38c-.38.17-.55.61-.38 1Z" fill="#C5BFCF"/><path d="m9.58 15.138-.35 1.86c-.08.41.19.81.61.89.41.08.81-.19.89-.61l.35-1.86a.76.76 0 0 0-.61-.89.75.75 0 0 0-.89.61Z" fill="#BAB1C8"/><path d="m7.82 11.458-1.68.88a.75.75 0 0 0-.32 1.02c.19.37.65.52 1.02.32l1.68-.88a.75.75 0 0 0 .32-1.02.758.758 0 0 0-1.02-.32Z" fill="url(#i)"/><path d="m19.75 6.068-.35 1.86c-.08.41.19.81.61.89.41.08.81-.19.89-.61l.35-1.86a.76.76 0 0 0-.61-.89c-.41-.07-.81.2-.89.61Z" fill="#E0DDE2"/><path d="m9.04 6.368-1.13 1.52c-.25.34-.18.81.16 1.06.34.25.81.18 1.06-.16l1.13-1.52c.25-.34.18-.81-.16-1.06a.755.755 0 0 0-1.06.16Z" fill="#A6A2A9"/><path d="m16.06 15.048-1.13 1.52c-.25.34-.18.81.16 1.06.34.25.81.18 1.06-.16l1.13-1.52c.25-.34.18-.81-.16-1.06a.772.772 0 0 0-1.06.16Z" fill="#C7BFD5"/><path d="m23.52 11.008 1.23 1.44a.76.76 0 0 0 1.16-.98l-1.23-1.44a.76.76 0 0 0-1.16.98Z" fill="#EDEBEF"/><path d="m16 6.118-.95-1.64a.764.764 0 0 0-1.04-.28c-.36.21-.49.67-.28 1.04l.95 1.64c.21.36.67.49 1.04.28.37-.21.49-.67.28-1.04Z" fill="#CCCACF"/><path d="m24.04 16.548-.95-1.64a.764.764 0 0 0-1.04-.28c-.36.21-.49.67-.28 1.04l.95 1.64c.21.36.67.49 1.04.28.36-.21.49-.67.28-1.04Z" fill="#DAD4E2"/><path d="m20.22 11.298-1.74-.75a.759.759 0 0 0-1 .4c-.17.38.01.83.4 1l1.74.75c.38.17.83-.01 1-.4a.769.769 0 0 0-.4-1Z" fill="#D5D0DD"/><defs><radialGradient id="e" cx="0" cy="0" r="1" gradientUnits="userSpaceOnUse" gradientTransform="rotate(-46.58 32.21 2.335) scale(25.6424 26.1468)"><stop offset=".475" stop-color="#E0D4EF"/><stop offset=".909" stop-color="#FCFBFD" stop-opacity="0"/></radialGradient><radialGradient id="f" cx="0" cy="0" r="1" gradientUnits="userSpaceOnUse" gradientTransform="matrix(-6.37494 18.3125 -21.84422 -7.6044 20.875 13.438)"><stop offset=".395" stop-color="#D1CDD5" stop-opacity="0"/><stop offset=".66" stop-color="#9B96A1"/></radialGradient><radialGradient id="g" cx="0" cy="0" r="1" gradientUnits="userSpaceOnUse" gradientTransform="matrix(-.0625 2.75 -3.21006 -.07295 14.75 4.438)"><stop stop-color="#E0DFE0"/><stop offset="1" stop-color="#F9F6FC" stop-opacity="0"/></radialGradient><radialGradient id="h" cx="0" cy="0" r="1" gradientUnits="userSpaceOnUse" gradientTransform="matrix(-1.5625 .875 -1.6095 -2.87408 19.563 4.813)"><stop stop-color="#F6F5F6"/><stop offset="1" stop-color="#F1EFF2" stop-opacity="0"/></radialGradient><linearGradient id="a" x1="29.9" y1="22.313" x2="2.625" y2="22.313" gradientUnits="userSpaceOnUse"><stop stop-color="#FF3F48"/><stop offset=".136" stop-color="#FC2D53"/><stop offset=".313" stop-color="#D42C62"/><stop offset=".51" stop-color="#D82D67"/><stop offset=".755" stop-color="#C52E62"/><stop offset="1" stop-color="#984651"/></linearGradient><linearGradient id="b" x1="13.375" y1="31.375" x2="13.375" y2="26.125" gradientUnits="userSpaceOnUse"><stop stop-color="#A2336C"/><stop offset="1" stop-color="#A82B66" stop-opacity="0"/></linearGradient><linearGradient id="c" x1="27.625" y1="5.938" x2="4.875" y2="17.313" gradientUnits="userSpaceOnUse"><stop stop-color="#EB3334"/><stop offset="1" stop-color="#B22B4D"/></linearGradient><linearGradient id="i" x1="6.125" y1="13.25" x2="8.929" y2="11.373" gradientUnits="userSpaceOnUse"><stop stop-color="#807985"/><stop offset="1" stop-color="#A6A0AE"/></linearGradient><filter id="d" x="1.603" y="4.347" width="27.115" height="16.914" filterUnits="userSpaceOnUse" color-interpolation-filters="sRGB"><feFlood flood-opacity="0" result="BackgroundImageFix"/><feBlend in="SourceGraphic" in2="BackgroundImageFix" result="shape"/><feGaussianBlur stdDeviation="1" result="effect1_foregroundBlur_18_31758"/></filter></defs></svg>
